X:1
T:James Gibb editions
T:Psalm 119, pt 1 (Becker) - Schütz
%%score [ ( 1 2 ) ( 3 4 ) ]
L:1/8
Q:1/4=98
M:2/2
K:C
V:1 treble nm="Soprano Alto"
V:2 treble 
V:3 bass nm="Tenor Bass"
V:4 bass 
V:1
"^Cornelius Becker\n(1561-1604)""^Psalm 119, part 1, SWV 217""^Heinrich Schütz\n(1585-1672)" d2 | %1
w: ~Wohl|
w: in|
 B2 G2 A2 B2 | c4 B2 G2 | A2 F2 E2 E2 | D6 :|[M:2/2] D2 | A2 G2 A2 B2 | c2 B2 A2 c2 | d2 e2 A2 c2 | %9
w: de- nen, die da|le- ben vor|Gott in Hei- lig-|keit,|die|recht von Her- zen|su- chen Gott und|sei- ne Zeug- nis|
w: sei- nem Wil- len|e- ben wan-|deln zu je- der|Zeit|||||
 d4 c2 e2 | d4 c4 | B4 A4 | G6 |] %13
w: hal- ten, sind|stets bei|ihm in|Gnad.|
w: ||||
V:2
 G2 | G2 D2 D2 D2 | E4 D2 B,2 | A,2 D2 D2 ^C2 | D6 :|[M:2/2] A,2 | D2 B,2 D3 B, | E2 E2 E2 E2 | %8
 G2 G2 F2 E2 | G4 E2 G2 | G4 E4 | D4 D4 | D6 |] %13
V:3
 B,2 | D2 B,2 A,2 G,2 | G,4 G,2 D,2 | F,2 A,2 A,2 A,2 | A,6 :|[M:2/2] ^F,2 | %6
"^4. Von Herzensgrund ich spreche: Dir sei Dank allezeit,\nweil du mich lehrst die Rechte deiner Gerechtigkeit,\ndie Gnad auch ferner mir gewähr, ich will dein Rechte halten,\nverlaß mich nimmermehr.\n\n6. Ich halt in meinem Herzen dein Wort mit allem Fleiß,\nauf daß ich nicht verscherze durch Sünd den heilgen Geist.\nGelobet seist du, Gott, mein Herr, lehre mich deine Rechte,\nin mir den Glauben mehr.\n\n7. Mein Lippen oft erzählen die Rede deines Munds,\nauf daß ich mir erwähle dein Recht von Herzensgrund,\ndein Wort macht mir ein frohen Mut, mehr ich mich drüber freue,\nals über allem Gut.\n\n8. Von deinem Wort und Willen ich oft zu reden pfleg,\ndenselben zu erfüllen, schau ich auf deine Weg,\nich hab Lust zu den Rechten dein, bei mir deins lieben Wortes\nmuß unvergessen sein." ^F,2 G,2 F,2 ^G,2 | %7
 A,2 ^G,2 A,2 A,2 | B,2 C2 C2 A,2 | B,4 C2 C2 | B,6 A,2- | A,2 G,4 ^F,2 | G,6 |] %13
V:4
 G,2 | G,2 G,2 ^F,2 G,2 | C,4 G,,2 G,,2 | D,2 D,2 A,,2 A,,2 | D,6 :|[M:2/2] D,2 | %6
 D,2 E,2 D,2 B,,2 | A,,2 E,2 A,,2 A,2 | G,2 E,2 F,2 A,2 | G,4 C,2 C,2 | G,,4 A,,4 | (B,,3 C,) D,4 | %12
 G,,6 |] %13

